Newaita-dark/apps/64/cs-applets.svg

<svg height="64" viewBox="0 0 64 64" width="64" xmlns="http://www.w3.org/2000/svg" xmlns:xlink="http://www.w3.org/1999/xlink"><linearGradient id="a" gradientUnits="userSpaceOnUse" x1="31.75304" x2="31.75304" y1="56.067868" y2="58.71395600006"><stop offset="0" stop-opacity=".27451"/><stop offset="1" stop-opacity="0"/></linearGradient><linearGradient id="b"><stop offset="0" stop-opacity=".313726"/><stop offset=".222222" stop-opacity=".27451"/><stop offset="1" stop-opacity="0"/></linearGradient><radialGradient id="c" cx="450.908936" cy="189.579361" gradientTransform="matrix(.00000035 -.156265 -.281277 -.0000002 106.907382 127.190661)" gradientUnits="userSpaceOnUse" r="21.166656" xlink:href="#b"/><radialGradient id="d" cx="450.908936" cy="189.579361" gradientTransform="matrix(-.00000035 .156265 .281277 .0000002 -43.401323 -15.054962)" gradientUnits="userSpaceOnUse" r="21.166656" xlink:href="#b"/><radialGradient id="e" cx="450.908936" cy="189.579361" gradientTransform="matrix(-.00000035 -.156265 .281277 -.0000002 -43.401323 127.190661)" gradientUnits="userSpaceOnUse" r="21.166656" xlink:href="#b"/><radialGradient id="f" cx="450.908936" cy="189.579361" gradientTransform="matrix(.00000035 .156265 -.281277 .0000002 106.907378 -15.054963)" gradientUnits="userSpaceOnUse" r="21.166656" xlink:href="#b"/><linearGradient id="g" gradientTransform="matrix(.150699 0 0 .434824 -11.708026 67.282696)" gradientUnits="userSpaceOnUse" x1="306.916656" x2="305.954559" y1="-25.791676" y2="-135.329163"><stop offset="0" stop-color="#5c6bc0"/><stop offset="1" stop-color="#7986cb"/></linearGradient><linearGradient id="h"><stop offset="0" stop-color="#b0bec5"/><stop offset="1" stop-color="#cfd8dc"/></linearGradient><linearGradient id="i" gradientUnits="userSpaceOnUse" x1="13.23043800013" x2="13.23043800013" xlink:href="#h" y1="56.067868" y2="8.438296"/><linearGradient id="j" gradientUnits="userSpaceOnUse" x1="26.46086900013" x2="26.46086900013" xlink:href="#h" y1="56.067868" y2="8.438296"/><linearGradient id="k" gradientUnits="userSpaceOnUse" x1="39.69129900013" x2="39.69129900013" xlink:href="#h" y1="56.067868" y2="8.438296"/><linearGradient id="l" gradientUnits="userSpaceOnUse" x1="52.92172800013" x2="52.92172800013" xlink:href="#h" y1="56.067868" y2="8.438296"/><path d="m9.261719 56.066406h44.984375v2.648438h-44.984375zm0 0" fill="url(#a)"/><path d="m54.246094 56.066406h5.289062v-2.644531h-5.289062zm0 0" fill="url(#c)"/><path d="m9.261719 56.066406h-5.292969v2.648438h5.292969zm0 0" fill="url(#d)"/><path d="m9.261719 56.066406h-5.292969v-2.644531h5.292969zm0 0" fill="url(#e)"/><path d="m54.246094 56.066406h5.289062v2.648438h-5.289062zm0 0" fill="url(#f)"/><path d="m6.613281 8.4375h50.277344c1.460937 0 2.644531 1.183594 2.644531 2.648438v42.335937c0 1.460937-1.183594 2.644531-2.644531 2.644531h-50.277344c-1.460937 0-2.644531-1.183594-2.644531-2.644531v-42.335937c0-1.464844 1.183594-2.648438 2.644531-2.648438zm0 0" fill="url(#g)"/><path d="m6.613281 56.09375c-1.464843 0-2.644531-1.179688-2.644531-2.644531v-.6875c0 1.464843 1.179688 2.644531 2.644531 2.644531h50.277344c1.464844 0 2.644531-1.179688 2.644531-2.644531v.6875c0 1.464843-1.179687 2.644531-2.644531 2.644531zm0 0" fill-opacity=".235294"/><path d="m6.613281 8.589844c-1.464843 0-2.644531 1.179687-2.644531 2.648437v.6875c0-1.46875 1.179688-2.648437 2.644531-2.648437h50.277344c1.464844 0 2.644531 1.179687 2.644531 2.648437v-.6875c0-1.46875-1.179687-2.648437-2.644531-2.648437zm0 0" fill="#fff" fill-opacity=".392157"/><path d="m6.613281 8.25c-1.566406 0-2.832031 1.269531-2.832031 2.835938v42.335937c0 1.566406 1.265625 2.832031 2.832031 2.832031h50.277344c1.566406 0 2.832031-1.265625 2.832031-2.832031v-42.335937c0-1.566407-1.265625-2.835938-2.832031-2.835938zm0 .375h50.277344c1.367187 0 2.457031 1.09375 2.457031 2.460938v42.335937c0 1.367187-1.089844 2.457031-2.457031 2.457031h-50.277344c-1.363281 0-2.457031-1.089844-2.457031-2.457031v-42.335937c0-1.367188 1.09375-2.460938 2.457031-2.460938zm0 0" fill="#212121"/><path d="m9.261719 42.835938h5.292969c1.460937 0 2.644531 1.1875 2.644531 2.648437v5.292969c0 1.460937-1.183594 2.644531-2.644531 2.644531h-5.292969c-1.460938 0-2.648438-1.183594-2.648438-2.644531v-5.292969c0-1.460937 1.1875-2.648437 2.648438-2.648437zm0 0" fill="url(#i)"/><path d="m9.261719 42.835938c-1.464844 0-2.648438 1.179687-2.648438 2.648437v.992187c0-1.464843 1.183594-2.648437 2.648438-2.648437h5.292969c1.464843 0 2.644531 1.183594 2.644531 2.648437v-.992187c0-1.46875-1.179688-2.648437-2.644531-2.648437zm0 0" fill="#fff" fill-opacity=".392157"/><path d="m9.261719 54.414062c-1.464844 0-2.648438-1.179687-2.648438-2.644531v-.992187c0 1.464844 1.183594 2.644531 2.648438 2.644531h5.292969c1.464843 0 2.644531-1.179687 2.644531-2.644531v.992187c0 1.464844-1.179688 2.644531-2.644531 2.644531zm0 0" fill-opacity=".235294"/><path d="m74.086675 127.654778h42.339707c11.686384 0 21.15423 9.499093 21.15423 21.185477v42.339707c0 11.686384-9.467846 21.15423-21.15423 21.15423h-42.339707c-11.686384 0-21.185477-9.467846-21.185477-21.15423v-42.339707c0-11.686384 9.499093-21.185477 21.185477-21.185477zm0 0" fill="none" stroke="#212121" stroke-linecap="round" stroke-linejoin="round" stroke-width="3" transform="matrix(.125012 0 0 .125012 0 26.877566)"/><path d="m22.492188 42.835938h5.292968c1.460938 0 2.644532 1.1875 2.644532 2.648437v5.292969c0 1.460937-1.183594 2.644531-2.644532 2.644531h-5.292968c-1.460938 0-2.648438-1.183594-2.648438-2.644531v-5.292969c0-1.460937 1.1875-2.648437 2.648438-2.648437zm0 0" fill="url(#j)"/><path d="m22.492188 42.835938c-1.464844 0-2.648438 1.179687-2.648438 2.648437v.992187c0-1.464843 1.183594-2.648437 2.648438-2.648437h5.292968c1.464844 0 2.644532 1.183594 2.644532 2.648437v-.992187c0-1.46875-1.179688-2.648437-2.644532-2.648437zm0 0" fill="#fff" fill-opacity=".392157"/><path d="m22.492188 54.414062c-1.464844 0-2.648438-1.179687-2.648438-2.644531v-.992187c0 1.464844 1.183594 2.644531 2.648438 2.644531h5.292968c1.464844 0 2.644532-1.179687 2.644532-2.644531v.992187c0 1.464844-1.179688 2.644531-2.644532 2.644531zm0 0" fill-opacity=".235294"/><path d="m74.086975 127.654778h42.339707c11.686384 0 21.15423 9.499093 21.15423 21.185477v42.339707c0 11.686384-9.467846 21.15423-21.15423 21.15423h-42.339707c-11.686384 0-21.185477-9.467846-21.185477-21.15423v-42.339707c0-11.686384 9.499093-21.185477 21.185477-21.185477zm0 0" fill="none" stroke="#212121" stroke-linecap="round" stroke-linejoin="round" stroke-width="3" transform="matrix(.125012 0 0 .125012 13.230431 26.877566)"/><path d="m35.722656 42.835938h5.292969c1.460937 0 2.644531 1.1875 2.644531 2.648437v5.292969c0 1.460937-1.183594 2.644531-2.644531 2.644531h-5.292969c-1.460937 0-2.648437-1.183594-2.648437-2.644531v-5.292969c0-1.460937 1.1875-2.648437 2.648437-2.648437zm0 0" fill="url(#k)"/><path d="m35.722656 42.835938c-1.464844 0-2.648437 1.179687-2.648437 2.648437v.992187c0-1.464843 1.183593-2.648437 2.648437-2.648437h5.292969c1.464844 0 2.644531 1.183594 2.644531 2.648437v-.992187c0-1.46875-1.179687-2.648437-2.644531-2.648437zm0 0" fill="#fff" fill-opacity=".392157"/><path d="m35.722656 54.414062c-1.464844 0-2.648437-1.179687-2.648437-2.644531v-.992187c0 1.464844 1.183593 2.644531 2.648437 2.644531h5.292969c1.464844 0 2.644531-1.179687 2.644531-2.644531v.992187c0 1.464844-1.179687 2.644531-2.644531 2.644531zm0 0" fill-opacity=".235294"/><path d="m74.08729 127.654778h42.339707c11.686384 0 21.15423 9.499093 21.15423 21.185477v42.339707c0 11.686384-9.467846 21.15423-21.15423 21.15423h-42.339707c-11.686384 0-21.185477-9.467846-21.185477-21.15423v-42.339707c0-11.686384 9.499093-21.185477 21.185477-21.185477zm0 0" fill="none" stroke="#212121" stroke-linecap="round" stroke-linejoin="round" stroke-width="3" transform="matrix(.125012 0 0 .125012 26.460861 26.877566)"/><path d="m48.953125 42.835938h5.292969c1.460937 0 2.644531 1.1875 2.644531 2.648437v5.292969c0 1.460937-1.183594 2.644531-2.644531 2.644531h-5.292969c-1.460937 0-2.648437-1.183594-2.648437-2.644531v-5.292969c0-1.460937 1.1875-2.648437 2.648437-2.648437zm0 0" fill="url(#l)"/><path d="m48.953125 42.835938c-1.464844 0-2.648437 1.179687-2.648437 2.648437v.992187c0-1.464843 1.183593-2.648437 2.648437-2.648437h5.292969c1.464844 0 2.644531 1.183594 2.644531 2.648437v-.992187c0-1.46875-1.179687-2.648437-2.644531-2.648437zm0 0" fill="#fff" fill-opacity=".392157"/><path d="m48.953125 54.414062c-1.464844 0-2.648437-1.179687-2.648437-2.644531v-.992187c0 1.464844 1.183593 2.644531 2.648437 2.644531h5.292969c1.464844 0 2.644531-1.179687 2.644531-2.644531v.992187c0 1.464844-1.179687 2.644531-2.644531 2.644531zm0 0" fill-opacity=".235294"/><path d="m74.087605 127.654778h42.339707c11.686384 0 21.15423 9.499093 21.15423 21.185477v42.339707c0 11.686384-9.467846 21.15423-21.15423 21.15423h-42.339707c-11.686384 0-21.185477-9.467846-21.185477-21.15423v-42.339707c0-11.686384 9.499093-21.185477 21.185477-21.185477zm0 0" fill="none" stroke="#212121" stroke-linecap="round" stroke-linejoin="round" stroke-width="3" transform="matrix(.125012 0 0 .125012 39.69129 26.877566)"/></svg>

<?xml version="1.0" encoding="UTF-8"?>
<svg xmlns="http://www.w3.org/2000/svg" xmlns:xlink="http://www.w3.org/1999/xlink" width="64px" height="64px" viewBox="0 0 64 64" version="1.1">
<defs>
<linearGradient id="linear0" gradientUnits="userSpaceOnUse" x1="254" y1="233.5" x2="254" y2="254.666672" gradientTransform="matrix(0.125012,0,0,0.125012,-0.00000763012,26.877566)">
<stop offset="0" style="stop-color:rgb(0%,0%,0%);stop-opacity:0.27451;"/>
<stop offset="1" style="stop-color:rgb(0%,0%,0%);stop-opacity:0;"/>
</linearGradient>
<radialGradient id="radial0" gradientUnits="userSpaceOnUse" cx="450.908936" cy="189.579361" fx="450.908936" fy="189.579361" r="21.166656" gradientTransform="matrix(0.000000348341,-0.156265,-0.281277,-0.000000203077,106.907382,127.190661)">
<stop offset="0" style="stop-color:rgb(0%,0%,0%);stop-opacity:0.313726;"/>
<stop offset="0.222222" style="stop-color:rgb(0%,0%,0%);stop-opacity:0.27451;"/>
<stop offset="1" style="stop-color:rgb(0%,0%,0%);stop-opacity:0;"/>
</radialGradient>
<radialGradient id="radial1" gradientUnits="userSpaceOnUse" cx="450.908936" cy="189.579361" fx="450.908936" fy="189.579361" r="21.166656" gradientTransform="matrix(-0.000000348341,0.156265,0.281277,0.000000203077,-43.401323,-15.054962)">
<stop offset="0" style="stop-color:rgb(0%,0%,0%);stop-opacity:0.313726;"/>
<stop offset="0.222222" style="stop-color:rgb(0%,0%,0%);stop-opacity:0.27451;"/>
<stop offset="1" style="stop-color:rgb(0%,0%,0%);stop-opacity:0;"/>
</radialGradient>
<radialGradient id="radial2" gradientUnits="userSpaceOnUse" cx="450.908936" cy="189.579361" fx="450.908936" fy="189.579361" r="21.166656" gradientTransform="matrix(-0.000000348341,-0.156265,0.281277,-0.000000203077,-43.401323,127.190661)">
<stop offset="0" style="stop-color:rgb(0%,0%,0%);stop-opacity:0.313726;"/>
<stop offset="0.222222" style="stop-color:rgb(0%,0%,0%);stop-opacity:0.27451;"/>
<stop offset="1" style="stop-color:rgb(0%,0%,0%);stop-opacity:0;"/>
</radialGradient>
<radialGradient id="radial3" gradientUnits="userSpaceOnUse" cx="450.908936" cy="189.579361" fx="450.908936" fy="189.579361" r="21.166656" gradientTransform="matrix(0.000000348341,0.156265,-0.281277,0.000000203077,106.907378,-15.054963)">
<stop offset="0" style="stop-color:rgb(0%,0%,0%);stop-opacity:0.313726;"/>
<stop offset="0.222222" style="stop-color:rgb(0%,0%,0%);stop-opacity:0.27451;"/>
<stop offset="1" style="stop-color:rgb(0%,0%,0%);stop-opacity:0;"/>
</radialGradient>
<linearGradient id="linear1" gradientUnits="userSpaceOnUse" x1="306.916656" y1="-25.791676" x2="305.954559" y2="-135.329163" gradientTransform="matrix(0.150699,0,0,0.434824,-11.708026,67.282696)">
<stop offset="0" style="stop-color:rgb(36.078432%,41.960785%,75.294119%);stop-opacity:1;"/>
<stop offset="1" style="stop-color:rgb(47.450981%,52.549022%,79.607844%);stop-opacity:1;"/>
</linearGradient>
<linearGradient id="linear2" gradientUnits="userSpaceOnUse" x1="105.833344" y1="233.5" x2="105.833344" y2="-147.5" gradientTransform="matrix(0.125012,0,0,0.125012,0,26.877566)">
<stop offset="0" style="stop-color:rgb(69.01961%,74.509805%,77.254903%);stop-opacity:1;"/>
<stop offset="1" style="stop-color:rgb(81.176472%,84.705883%,86.274511%);stop-opacity:1;"/>
</linearGradient>
<linearGradient id="linear3" gradientUnits="userSpaceOnUse" x1="105.833344" y1="233.5" x2="105.833344" y2="-147.5" gradientTransform="matrix(0.125012,0,0,0.125012,13.230431,26.877566)">
<stop offset="0" style="stop-color:rgb(69.01961%,74.509805%,77.254903%);stop-opacity:1;"/>
<stop offset="1" style="stop-color:rgb(81.176472%,84.705883%,86.274511%);stop-opacity:1;"/>
</linearGradient>
<linearGradient id="linear4" gradientUnits="userSpaceOnUse" x1="105.833344" y1="233.5" x2="105.833344" y2="-147.5" gradientTransform="matrix(0.125012,0,0,0.125012,26.460861,26.877566)">
<stop offset="0" style="stop-color:rgb(69.01961%,74.509805%,77.254903%);stop-opacity:1;"/>
<stop offset="1" style="stop-color:rgb(81.176472%,84.705883%,86.274511%);stop-opacity:1;"/>
</linearGradient>
<linearGradient id="linear5" gradientUnits="userSpaceOnUse" x1="105.833344" y1="233.5" x2="105.833344" y2="-147.5" gradientTransform="matrix(0.125012,0,0,0.125012,39.69129,26.877566)">
<stop offset="0" style="stop-color:rgb(69.01961%,74.509805%,77.254903%);stop-opacity:1;"/>
<stop offset="1" style="stop-color:rgb(81.176472%,84.705883%,86.274511%);stop-opacity:1;"/>
</linearGradient>
</defs>
<g id="surface1">
<path style=" stroke:none;fill-rule:nonzero;fill:url(#linear0);" d="M 9.261719 56.066406 L 54.246094 56.066406 L 54.246094 58.714844 L 9.261719 58.714844 Z M 9.261719 56.066406 "/>
<path style=" stroke:none;fill-rule:nonzero;fill:url(#radial0);" d="M 54.246094 56.066406 L 59.535156 56.066406 L 59.535156 53.421875 L 54.246094 53.421875 Z M 54.246094 56.066406 "/>
<path style=" stroke:none;fill-rule:nonzero;fill:url(#radial1);" d="M 9.261719 56.066406 L 3.96875 56.066406 L 3.96875 58.714844 L 9.261719 58.714844 Z M 9.261719 56.066406 "/>
<path style=" stroke:none;fill-rule:nonzero;fill:url(#radial2);" d="M 9.261719 56.066406 L 3.96875 56.066406 L 3.96875 53.421875 L 9.261719 53.421875 Z M 9.261719 56.066406 "/>
<path style=" stroke:none;fill-rule:nonzero;fill:url(#radial3);" d="M 54.246094 56.066406 L 59.535156 56.066406 L 59.535156 58.714844 L 54.246094 58.714844 Z M 54.246094 56.066406 "/>
<path style=" stroke:none;fill-rule:nonzero;fill:url(#linear1);" d="M 6.613281 8.4375 L 56.890625 8.4375 C 58.351562 8.4375 59.535156 9.621094 59.535156 11.085938 L 59.535156 53.421875 C 59.535156 54.882812 58.351562 56.066406 56.890625 56.066406 L 6.613281 56.066406 C 5.152344 56.066406 3.96875 54.882812 3.96875 53.421875 L 3.96875 11.085938 C 3.96875 9.621094 5.152344 8.4375 6.613281 8.4375 Z M 6.613281 8.4375 "/>
<path style=" stroke:none;fill-rule:nonzero;fill:rgb(0%,0%,0%);fill-opacity:0.235294;" d="M 6.613281 56.09375 C 5.148438 56.09375 3.96875 54.914062 3.96875 53.449219 L 3.96875 52.761719 C 3.96875 54.226562 5.148438 55.40625 6.613281 55.40625 L 56.890625 55.40625 C 58.355469 55.40625 59.535156 54.226562 59.535156 52.761719 L 59.535156 53.449219 C 59.535156 54.914062 58.355469 56.09375 56.890625 56.09375 Z M 6.613281 56.09375 "/>
<path style=" stroke:none;fill-rule:nonzero;fill:rgb(100%,100%,100%);fill-opacity:0.392157;" d="M 6.613281 8.589844 C 5.148438 8.589844 3.96875 9.769531 3.96875 11.238281 L 3.96875 11.925781 C 3.96875 10.457031 5.148438 9.277344 6.613281 9.277344 L 56.890625 9.277344 C 58.355469 9.277344 59.535156 10.457031 59.535156 11.925781 L 59.535156 11.238281 C 59.535156 9.769531 58.355469 8.589844 56.890625 8.589844 Z M 6.613281 8.589844 "/>
<path style=" stroke:none;fill-rule:nonzero;fill:rgb(12.941177%,12.941177%,12.941177%);fill-opacity:1;" d="M 6.613281 8.25 C 5.046875 8.25 3.78125 9.519531 3.78125 11.085938 L 3.78125 53.421875 C 3.78125 54.988281 5.046875 56.253906 6.613281 56.253906 L 56.890625 56.253906 C 58.457031 56.253906 59.722656 54.988281 59.722656 53.421875 L 59.722656 11.085938 C 59.722656 9.519531 58.457031 8.25 56.890625 8.25 Z M 6.613281 8.625 L 56.890625 8.625 C 58.257812 8.625 59.347656 9.71875 59.347656 11.085938 L 59.347656 53.421875 C 59.347656 54.789062 58.257812 55.878906 56.890625 55.878906 L 6.613281 55.878906 C 5.25 55.878906 4.15625 54.789062 4.15625 53.421875 L 4.15625 11.085938 C 4.15625 9.71875 5.25 8.625 6.613281 8.625 Z M 6.613281 8.625 "/>
<path style=" stroke:none;fill-rule:nonzero;fill:url(#linear2);" d="M 9.261719 42.835938 L 14.554688 42.835938 C 16.015625 42.835938 17.199219 44.023438 17.199219 45.484375 L 17.199219 50.777344 C 17.199219 52.238281 16.015625 53.421875 14.554688 53.421875 L 9.261719 53.421875 C 7.800781 53.421875 6.613281 52.238281 6.613281 50.777344 L 6.613281 45.484375 C 6.613281 44.023438 7.800781 42.835938 9.261719 42.835938 Z M 9.261719 42.835938 "/>
<path style=" stroke:none;fill-rule:nonzero;fill:rgb(100%,100%,100%);fill-opacity:0.392157;" d="M 9.261719 42.835938 C 7.796875 42.835938 6.613281 44.015625 6.613281 45.484375 L 6.613281 46.476562 C 6.613281 45.011719 7.796875 43.828125 9.261719 43.828125 L 14.554688 43.828125 C 16.019531 43.828125 17.199219 45.011719 17.199219 46.476562 L 17.199219 45.484375 C 17.199219 44.015625 16.019531 42.835938 14.554688 42.835938 Z M 9.261719 42.835938 "/>
<path style=" stroke:none;fill-rule:nonzero;fill:rgb(0%,0%,0%);fill-opacity:0.235294;" d="M 9.261719 54.414062 C 7.796875 54.414062 6.613281 53.234375 6.613281 51.769531 L 6.613281 50.777344 C 6.613281 52.242188 7.796875 53.421875 9.261719 53.421875 L 14.554688 53.421875 C 16.019531 53.421875 17.199219 52.242188 17.199219 50.777344 L 17.199219 51.769531 C 17.199219 53.234375 16.019531 54.414062 14.554688 54.414062 Z M 9.261719 54.414062 "/>
<path style="fill:none;stroke-width:3;stroke-linecap:round;stroke-linejoin:round;stroke:rgb(12.941177%,12.941177%,12.941177%);stroke-opacity:1;stroke-miterlimit:4;" d="M 74.086675 127.654778 L 116.426382 127.654778 C 128.112766 127.654778 137.580612 137.153871 137.580612 148.840255 L 137.580612 191.179962 C 137.580612 202.866346 128.112766 212.334192 116.426382 212.334192 L 74.086675 212.334192 C 62.400291 212.334192 52.901198 202.866346 52.901198 191.179962 L 52.901198 148.840255 C 52.901198 137.153871 62.400291 127.654778 74.086675 127.654778 Z M 74.086675 127.654778 " transform="matrix(0.125012,0,0,0.125012,0,26.877566)"/>
<path style=" stroke:none;fill-rule:nonzero;fill:url(#linear3);" d="M 22.492188 42.835938 L 27.785156 42.835938 C 29.246094 42.835938 30.429688 44.023438 30.429688 45.484375 L 30.429688 50.777344 C 30.429688 52.238281 29.246094 53.421875 27.785156 53.421875 L 22.492188 53.421875 C 21.03125 53.421875 19.84375 52.238281 19.84375 50.777344 L 19.84375 45.484375 C 19.84375 44.023438 21.03125 42.835938 22.492188 42.835938 Z M 22.492188 42.835938 "/>
<path style=" stroke:none;fill-rule:nonzero;fill:rgb(100%,100%,100%);fill-opacity:0.392157;" d="M 22.492188 42.835938 C 21.027344 42.835938 19.84375 44.015625 19.84375 45.484375 L 19.84375 46.476562 C 19.84375 45.011719 21.027344 43.828125 22.492188 43.828125 L 27.785156 43.828125 C 29.25 43.828125 30.429688 45.011719 30.429688 46.476562 L 30.429688 45.484375 C 30.429688 44.015625 29.25 42.835938 27.785156 42.835938 Z M 22.492188 42.835938 "/>
<path style=" stroke:none;fill-rule:nonzero;fill:rgb(0%,0%,0%);fill-opacity:0.235294;" d="M 22.492188 54.414062 C 21.027344 54.414062 19.84375 53.234375 19.84375 51.769531 L 19.84375 50.777344 C 19.84375 52.242188 21.027344 53.421875 22.492188 53.421875 L 27.785156 53.421875 C 29.25 53.421875 30.429688 52.242188 30.429688 50.777344 L 30.429688 51.769531 C 30.429688 53.234375 29.25 54.414062 27.785156 54.414062 Z M 22.492188 54.414062 "/>
<path style="fill:none;stroke-width:3;stroke-linecap:round;stroke-linejoin:round;stroke:rgb(12.941177%,12.941177%,12.941177%);stroke-opacity:1;stroke-miterlimit:4;" d="M 74.086975 127.654778 L 116.426682 127.654778 C 128.113066 127.654778 137.580912 137.153871 137.580912 148.840255 L 137.580912 191.179962 C 137.580912 202.866346 128.113066 212.334192 116.426682 212.334192 L 74.086975 212.334192 C 62.400591 212.334192 52.901498 202.866346 52.901498 191.179962 L 52.901498 148.840255 C 52.901498 137.153871 62.400591 127.654778 74.086975 127.654778 Z M 74.086975 127.654778 " transform="matrix(0.125012,0,0,0.125012,13.230431,26.877566)"/>
<path style=" stroke:none;fill-rule:nonzero;fill:url(#linear4);" d="M 35.722656 42.835938 L 41.015625 42.835938 C 42.476562 42.835938 43.660156 44.023438 43.660156 45.484375 L 43.660156 50.777344 C 43.660156 52.238281 42.476562 53.421875 41.015625 53.421875 L 35.722656 53.421875 C 34.261719 53.421875 33.074219 52.238281 33.074219 50.777344 L 33.074219 45.484375 C 33.074219 44.023438 34.261719 42.835938 35.722656 42.835938 Z M 35.722656 42.835938 "/>
<path style=" stroke:none;fill-rule:nonzero;fill:rgb(100%,100%,100%);fill-opacity:0.392157;" d="M 35.722656 42.835938 C 34.257812 42.835938 33.074219 44.015625 33.074219 45.484375 L 33.074219 46.476562 C 33.074219 45.011719 34.257812 43.828125 35.722656 43.828125 L 41.015625 43.828125 C 42.480469 43.828125 43.660156 45.011719 43.660156 46.476562 L 43.660156 45.484375 C 43.660156 44.015625 42.480469 42.835938 41.015625 42.835938 Z M 35.722656 42.835938 "/>
<path style=" stroke:none;fill-rule:nonzero;fill:rgb(0%,0%,0%);fill-opacity:0.235294;" d="M 35.722656 54.414062 C 34.257812 54.414062 33.074219 53.234375 33.074219 51.769531 L 33.074219 50.777344 C 33.074219 52.242188 34.257812 53.421875 35.722656 53.421875 L 41.015625 53.421875 C 42.480469 53.421875 43.660156 52.242188 43.660156 50.777344 L 43.660156 51.769531 C 43.660156 53.234375 42.480469 54.414062 41.015625 54.414062 Z M 35.722656 54.414062 "/>
<path style="fill:none;stroke-width:3;stroke-linecap:round;stroke-linejoin:round;stroke:rgb(12.941177%,12.941177%,12.941177%);stroke-opacity:1;stroke-miterlimit:4;" d="M 74.08729 127.654778 L 116.426997 127.654778 C 128.113381 127.654778 137.581227 137.153871 137.581227 148.840255 L 137.581227 191.179962 C 137.581227 202.866346 128.113381 212.334192 116.426997 212.334192 L 74.08729 212.334192 C 62.400906 212.334192 52.901813 202.866346 52.901813 191.179962 L 52.901813 148.840255 C 52.901813 137.153871 62.400906 127.654778 74.08729 127.654778 Z M 74.08729 127.654778 " transform="matrix(0.125012,0,0,0.125012,26.460861,26.877566)"/>
<path style=" stroke:none;fill-rule:nonzero;fill:url(#linear5);" d="M 48.953125 42.835938 L 54.246094 42.835938 C 55.707031 42.835938 56.890625 44.023438 56.890625 45.484375 L 56.890625 50.777344 C 56.890625 52.238281 55.707031 53.421875 54.246094 53.421875 L 48.953125 53.421875 C 47.492188 53.421875 46.304688 52.238281 46.304688 50.777344 L 46.304688 45.484375 C 46.304688 44.023438 47.492188 42.835938 48.953125 42.835938 Z M 48.953125 42.835938 "/>
<path style=" stroke:none;fill-rule:nonzero;fill:rgb(100%,100%,100%);fill-opacity:0.392157;" d="M 48.953125 42.835938 C 47.488281 42.835938 46.304688 44.015625 46.304688 45.484375 L 46.304688 46.476562 C 46.304688 45.011719 47.488281 43.828125 48.953125 43.828125 L 54.246094 43.828125 C 55.710938 43.828125 56.890625 45.011719 56.890625 46.476562 L 56.890625 45.484375 C 56.890625 44.015625 55.710938 42.835938 54.246094 42.835938 Z M 48.953125 42.835938 "/>
<path style=" stroke:none;fill-rule:nonzero;fill:rgb(0%,0%,0%);fill-opacity:0.235294;" d="M 48.953125 54.414062 C 47.488281 54.414062 46.304688 53.234375 46.304688 51.769531 L 46.304688 50.777344 C 46.304688 52.242188 47.488281 53.421875 48.953125 53.421875 L 54.246094 53.421875 C 55.710938 53.421875 56.890625 52.242188 56.890625 50.777344 L 56.890625 51.769531 C 56.890625 53.234375 55.710938 54.414062 54.246094 54.414062 Z M 48.953125 54.414062 "/>
<path style="fill:none;stroke-width:3;stroke-linecap:round;stroke-linejoin:round;stroke:rgb(12.941177%,12.941177%,12.941177%);stroke-opacity:1;stroke-miterlimit:4;" d="M 74.087605 127.654778 L 116.427312 127.654778 C 128.113696 127.654778 137.581542 137.153871 137.581542 148.840255 L 137.581542 191.179962 C 137.581542 202.866346 128.113696 212.334192 116.427312 212.334192 L 74.087605 212.334192 C 62.401221 212.334192 52.902128 202.866346 52.902128 191.179962 L 52.902128 148.840255 C 52.902128 137.153871 62.401221 127.654778 74.087605 127.654778 Z M 74.087605 127.654778 " transform="matrix(0.125012,0,0,0.125012,39.69129,26.877566)"/>
</g>
</svg>
